X:539
%%etbk:tnset id:275,pos:1,rep:2x,ant:1A:Acc+Fid+Flu - 1B:+Gui
%%etbk:wsite http://thesession.org/tunes/5675
%%etbk:color #f5f5f5
%%etbk:pldat 2015-09-10T17:11,2015-09-07T19:01,2015-09-06T14:54,2015-07-31T18:01,2015-07-30T18:51,2015-02-22T16:12,2015-02-21T17:22,2015-02-19T19:58,2015-02-18T17:21,2015-02-16T18:31,2015-02-13T18:33,2015-02-02T18:20,2015-01-26T18:50,2015-01-21T16:53,2015-01-14T17:31,2015-01-13T16:26,2015-01-10T14:46,2015-01-08T18:25,2015-01-07T15:14,2015-01-05T18:00,2014-12-28T13:58,2014-12-17T18:36,2014-12-09T16:25,2014-11-30T15:16,2014-11-19T15:17,2014-11-13T18:35,2014-11-12T18:49,2014-10-16T18:44,2014-10-14T18:09,2014-10-13T17:55,2014-10-10T15:30,2014-09-18T18:31,2014-09-15T18:02,2014-09-13T13:10,2014-08-14T18:31,2014-08-13T19:15,2014-08-12T18:25,2014-08-11T18:39,2014-08-10T13:28,2014-08-09T17:27,2014-08-06T19:06,2014-08-05T19:11,2014-08-04T18:47,2014-08-03T16:09,2014-08-02T15:58,2014-07-29T18:47,2014-07-26T15:24,2014-07-22T18:43,2014-07-20T14:58,2014-07-18T09:42,2014-07-14T17:12,2014-07-04T11:11,2014-07-02T16:54,2014-06-30T11:15,2014-06-20T15:37,2014-06-19T18:31,2014-06-17T18:23,2014-06-15T13:29,2014-06-12T18:45,2014-06-11T15:51,2014-06-10T19:36,2014-06-09T15:02,2014-06-07T16:24,2014-06-05T19:06,2014-06-04T16:31,2014-06-03T16:31,2014-06-02T18:42,2014-05-31T17:03,2014-05-28T10:06,2014-05-23T16:11,2014-05-20T15:49,2014-05-14T18:53,2014-05-12T18:18,2014-05-07T18:28,2014-05-05T19:40,2014-04-18T10:56,2014-04-12T11:16,2014-04-09T16:43,2014-04-07T18:39,2014-04-06T10:43,2014-04-03T18:52,2014-04-01T17:07,2014-03-26T16:04,2014-03-23T15:18,2014-03-19T19:27,2014-03-13T18:25,2014-03-06T19:14,2014-03-05T18:47,2014-03-04T18:46,2014-03-03T18:13,2014-03-02T15:03,2014-02-26T18:10,2014-02-25T19:04,2014-02-24T18:36,2014-02-20T18:13,2014-02-15T17:28,2014-02-12T18:24,2014-02-07T16:57,2014-01-30T17:56,2014-01-29T15:54,2014-01-28T16:33,2014-01-27T18:27,2014-01-26T15:18,2014-01-21T18:10,2014-01-19T14:45,2014-01-18T16:05,2014-01-17T18:29,2014-01-16T18:51,2014-01-15T17:41,2014-01-14T18:11,2014-01-13T18:35,2014-01-12T14:12,2014-01-09T18:40,2014-01-08T16:39,2014-01-07T17:16,2014-01-06T18:00,2014-01-03T15:27,2014-01-02T10:06,2013-12-29T13:06,2013-12-28T13:17,2013-12-27T15:59,2013-12-26T12:44,2013-12-22T16:17,2013-12-21T16:20,2013-12-19T19:37,2013-12-18T16:20,2013-12-17T15:31,2013-12-16T18:25,2013-12-15T16:26,2013-12-11T16:03,2013-12-07T16:17,2013-12-02T18:50,2013-11-27T19:00,2013-11-27T18:55,2013-11-26T15:44,2013-11-18T18:50,2013-11-13T17:41,2013-11-09T15:54,2013-11-06T18:10,2013-11-05T18:06,2013-10-29T17:30,2013-10-27T15:15,2013-10-26T17:13,2013-10-16T16:56
T: An Paistin Fionn
Z: Piano Box Version by Martin Fleischmann
H: Created 2013-10-20 /  Modified 2014-05-22
R: hornpipe
M: 4/4
L: 1/8
K: Edor
 !2!(3Bc!4!d |: "em"!2!e>gfe  !1!d>efd |  !3!g>bag  "D"!2!f2 !5!gf |  "em"!3!e>fe!2!d  !1!B!2!A!1!G!2!A | !3!B>dcA "bm"!3!B2 !1!B!2!d |
"em"!3!e>gfe !1!d>efd | !3!g>bag "D"!2!f2!5!gf | "em"!3!e>!1!B!3!e!2!d "bm"!1!B!2!A!1!F!3!B |1 "em"!1!E2 !1!E!2!D !1!E2 !2!(3Bcd:|2 "em"!1!E2 !1!E!2!D !1!E2 !1!E!2!F ||
|: "G"!1!G>!2!A!3!Bc !5!d>!3!BB!5!d | "A"!4!c>AAc !5!d>BB!2!A | "G"!1!G>!2!A!3!Bc !5!d!3!B!3!BA | "em"!3!B>!5!eed !5!e2!1!EF |
"G"!1!G>!2!A!3!Bc !5!d>!3!B!3!BA | "em"!3!B>!5!e!3!ef !5!g2gf | "em"!3!e>!4!f!3!e!2!d "bm"!1!B>!2!A!1!F!3!B |1 "em"!1!E2 ED E2 EF :|2 "em"!1!E2 ED E2 (3Bcd ||
P:Reggae A
|:"em"E/E/E EG BBGE | "D"F2zD -DDFA|1 "em"E/E/E EG BBGE | "bm"A2AF DDFD:|2 "em"E3D "bm"B,A,B,D | "em"E2ED E4||
P:Reggae A Var
|: "em"E3B BAGB | "D"A2AF DDFD | "em"E3B BAGB | "bm" dDdB AFDF|
| "em"E2BA BBAG | "D"A2AF DDFD | "em"E3D "bm"B,A,B,D | "em"E2ED E4:|
P:Reggae B 
|:"G"DGGG DGGG |"A"E2ED EFED| "G"DGGG DGGG| "em"DEED E4|
|"G"DGGG DGGG |"em"E2ED EFED| | "em"E3D "bm"B,A,B,D | "em"E2ED E4:|


